src/assets/icon/gear.svg

<?xml version="1.0" encoding="utf-8"?><!-- Uploaded to: SVG Repo, www.svgrepo.com, Generator: SVG Repo Mixer Tools -->
<svg width="800px" height="800px" viewBox="0 0 24 24" fill="#000000" xmlns="http://www.w3.org/2000/svg">
<path fill-rule="evenodd" clip-rule="evenodd" d="M12.0002 8C9.79111 8 8.00024 9.79086 8.00024 12C8.00024 14.2091 9.79111 16 12.0002 16C14.2094 16 16.0002 14.2091 16.0002 12C16.0002 9.79086 14.2094 8 12.0002 8ZM10.0002 12C10.0002 10.8954 10.8957 10 12.0002 10C13.1048 10 14.0002 10.8954 14.0002 12C14.0002 13.1046 13.1048 14 12.0002 14C10.8957 14 10.0002 13.1046 10.0002 12Z" fill="#000000"/>
<path fill-rule="evenodd" clip-rule="evenodd" d="M11.2867 0.5C9.88583 0.5 8.6461 1.46745 8.37171 2.85605L8.29264 3.25622C8.10489 4.20638 7.06195 4.83059 6.04511 4.48813L5.64825 4.35447C4.32246 3.90796 2.83873 4.42968 2.11836 5.63933L1.40492 6.83735C0.67773 8.05846 0.954349 9.60487 2.03927 10.5142L2.35714 10.7806C3.12939 11.4279 3.12939 12.5721 2.35714 13.2194L2.03927 13.4858C0.954349 14.3951 0.67773 15.9415 1.40492 17.1626L2.11833 18.3606C2.83872 19.5703 4.3225 20.092 5.64831 19.6455L6.04506 19.5118C7.06191 19.1693 8.1049 19.7935 8.29264 20.7437L8.37172 21.1439C8.6461 22.5325 9.88584 23.5 11.2867 23.5H12.7136C14.1146 23.5 15.3543 22.5325 15.6287 21.1438L15.7077 20.7438C15.8954 19.7936 16.9384 19.1693 17.9553 19.5118L18.3521 19.6455C19.6779 20.092 21.1617 19.5703 21.8821 18.3606L22.5955 17.1627C23.3227 15.9416 23.046 14.3951 21.9611 13.4858L21.6432 13.2194C20.8709 12.5722 20.8709 11.4278 21.6432 10.7806L21.9611 10.5142C23.046 9.60489 23.3227 8.05845 22.5955 6.83732L21.8821 5.63932C21.1617 4.42968 19.678 3.90795 18.3522 4.35444L17.9552 4.48814C16.9384 4.83059 15.8954 4.20634 15.7077 3.25617L15.6287 2.85616C15.3543 1.46751 14.1146 0.5 12.7136 0.5H11.2867ZM10.3338 3.24375C10.4149 2.83334 10.7983 2.5 11.2867 2.5H12.7136C13.2021 2.5 13.5855 2.83336 13.6666 3.24378L13.7456 3.64379C14.1791 5.83811 16.4909 7.09167 18.5935 6.38353L18.9905 6.24984C19.4495 6.09527 19.9394 6.28595 20.1637 6.66264L20.8771 7.86064C21.0946 8.22587 21.0208 8.69271 20.6764 8.98135L20.3586 9.24773C18.6325 10.6943 18.6325 13.3057 20.3586 14.7523L20.6764 15.0186C21.0208 15.3073 21.0946 15.7741 20.8771 16.1394L20.1637 17.3373C19.9394 17.714 19.4495 17.9047 18.9905 17.7501L18.5936 17.6164C16.4909 16.9082 14.1791 18.1618 13.7456 20.3562L13.6666 20.7562C13.5855 21.1666 13.2021 21.5 12.7136 21.5H11.2867C10.7983 21.5 10.4149 21.1667 10.3338 20.7562L10.2547 20.356C9.82113 18.1617 7.50931 16.9082 5.40665 17.6165L5.0099 17.7501C4.55092 17.9047 4.06104 17.714 3.83671 17.3373L3.1233 16.1393C2.9058 15.7741 2.97959 15.3073 3.32398 15.0186L3.64185 14.7522C5.36782 13.3056 5.36781 10.6944 3.64185 9.24779L3.32398 8.98137C2.97959 8.69273 2.9058 8.2259 3.1233 7.86067L3.83674 6.66266C4.06106 6.28596 4.55093 6.09528 5.0099 6.24986L5.40676 6.38352C7.50938 7.09166 9.82112 5.83819 10.2547 3.64392L10.3338 3.24375Z" />
</svg>

<svg xmlns="http://www.w3.org/2000/svg" width="800" height="800" viewBox="0 0 24 24"><path fill-rule="evenodd" d="M12.0002 8c-2.209 0-4 1.7909-4 4 0 2.2091 1.791 4 4 4 2.2092 0 4-1.7909 4-4 0-2.2091-1.7908-4-4-4Zm-2 4c0-1.1046.8955-2 2-2 1.1046 0 2 .8954 2 2s-.8954 2-2 2c-1.1045 0-2-.8954-2-2Z" clip-rule="evenodd"/><path fill-rule="evenodd" d="M11.2867.5c-1.4009 0-2.6406.9674-2.915 2.356l-.079.4002c-.1878.9502-1.2307 1.5744-2.2476 1.232l-.3968-.1337c-1.3258-.4465-2.8096.0752-3.53 1.2848l-.7134 1.198c-.7272 1.2212-.4506 2.7676.6344 3.6769l.3178.2664c.7723.6473.7723 1.7915 0 2.4388l-.3178.2664c-1.085.9093-1.3616 2.4557-.6344 3.6768l.7134 1.198c.7204 1.2097 2.2042 1.7314 3.53 1.2849l.3968-.1337c1.0168-.3425 2.0598.2817 2.2475 1.2319l.0791.4002c.2744 1.3886 1.5141 2.3561 2.915 2.3561h1.4269c1.401 0 2.6407-.9675 2.9151-2.3562l.079-.4c.1877-.9502 1.2307-1.5745 2.2476-1.232l.3968.1337c1.3258.4465 2.8096-.0752 3.53-1.2849l.7134-1.1979c.7272-1.2211.4505-2.7676-.6344-3.6769l-.3179-.2664c-.7723-.6472-.7723-1.7916 0-2.4388l.3179-.2664c1.0849-.9093 1.3616-2.4558.6344-3.6769l-.7134-1.198c-.7204-1.2096-2.2041-1.7314-3.5299-1.2849l-.397.1337c-1.0168.3425-2.0598-.2818-2.2475-1.232l-.079-.4C15.3543 1.4676 14.1146.5 12.7136.5h-1.4269Zm-.9529 2.7437c.0811-.4104.4645-.7437.9529-.7437h1.4269c.4885 0 .8719.3334.953.7438l.079.4c.4335 2.1943 2.7453 3.4479 4.8479 2.7397l.397-.1337c.459-.1545.9489.0362 1.1732.4128l.7134 1.198c.2175.3653.1437.8321-.2007 1.1208l-.3178.2663a3.573 3.573 0 0 0 0 5.5046l.3178.2663c.3444.2887.4182.7555.2007 1.1208l-.7134 1.1979c-.2243.3767-.7142.5674-1.1732.4128l-.3969-.1337c-2.1027-.7082-4.4145.5454-4.848 2.7398l-.079.4c-.0811.4104-.4645.7438-.953.7438h-1.4269c-.4884 0-.8718-.3333-.9529-.7438l-.0791-.4002c-.4336-2.1943-2.7454-3.4478-4.848-2.7395l-.3968.1336c-.459.1546-.9489-.0361-1.1732-.4128l-.7134-1.198c-.2175-.3652-.1437-.832.2007-1.1207l.3178-.2664c1.726-1.4466 1.726-4.0578 0-5.5044l-.3178-.2664c-.3444-.2887-.4182-.7555-.2007-1.1207l.7134-1.198c.2244-.3767.7142-.5674 1.1732-.4128l.3969.1336c2.1026.7082 4.4143-.5453 4.8479-2.7396l.0791-.4002Z" clip-rule="evenodd"/></svg>
